assets/images/svg/svg-menu-farm.svg

<svg class="menu-farm" width="30" height="30" viewBox="0 0 30 30" fill="none" xmlns="http://www.w3.org/2000/svg">
<g clip-path="url(#clip0_1293_2445)">
<path d="M15.4915 24.4867C15.4943 24.554 15.4833 24.6211 15.4592 24.684C15.4351 24.7469 15.3984 24.8041 15.3514 24.8522C15.3044 24.9003 15.2481 24.9382 15.186 24.9636C15.1238 24.9891 15.0571 25.0014 14.99 25C14.8544 25 14.7243 24.9459 14.6283 24.8497C14.5324 24.7534 14.4785 24.6228 14.4785 24.4867V15.0252C14.4835 14.8906 14.539 14.7629 14.6338 14.6677C14.7287 14.5725 14.856 14.5168 14.99 14.5118C15.0568 14.5118 15.1228 14.5252 15.1843 14.5511C15.2458 14.577 15.3016 14.615 15.3483 14.6628C15.395 14.7106 15.4317 14.7673 15.4563 14.8295C15.4809 14.8917 15.4929 14.9582 15.4915 15.0252V24.4867Z" fill="white"/>
<path d="M14.9901 20.3095H10.2458C9.55768 20.3079 8.8766 20.1702 8.24153 19.9042C7.60646 19.6382 7.02986 19.2492 6.54473 18.7594C6.05428 18.2702 5.66525 17.6883 5.40014 17.0474C5.13502 16.4064 4.99906 15.7191 5.0001 15.0252V10.2642C4.99874 10.1964 5.01103 10.1291 5.03625 10.0662C5.06148 10.0033 5.09911 9.94614 5.14689 9.8982C5.19466 9.85026 5.2516 9.81249 5.31428 9.78718C5.37696 9.76187 5.44408 9.74953 5.51163 9.7509H10.2458C10.9398 9.74928 11.6272 9.88641 12.2678 10.1543C12.9085 10.4221 13.4895 10.8154 13.977 11.311C14.9609 12.2955 15.5162 13.6309 15.5217 15.0252V19.8163C15.514 19.9525 15.4546 20.0806 15.3557 20.1742C15.2568 20.2678 15.126 20.3198 14.9901 20.3196V20.3095ZM10.2458 19.303H14.4785V15.0252C14.4865 14.4644 14.3813 13.9077 14.1693 13.3888C13.9573 12.8698 13.6428 12.3993 13.2448 12.0055C12.8507 11.6071 12.3819 11.2908 11.8655 11.0749C11.3491 10.859 10.7953 10.7476 10.2358 10.7474H6.00311V14.995C6.00381 16.1249 6.44687 17.2094 7.23681 18.0146C7.63192 18.4103 8.10131 18.7235 8.6178 18.936C9.13429 19.1485 9.68763 19.2561 10.2458 19.2527V19.303Z" fill="white"/>
<path d="M15.5216 14.5118H19.7744C20.3332 14.5198 20.8879 14.4143 21.405 14.2015C21.9222 13.9887 22.391 13.6732 22.7834 13.2738C23.1805 12.8782 23.4957 12.4078 23.7108 11.8896C23.926 11.3714 24.0369 10.8156 24.0372 10.2541V6.01659H19.7744C18.648 6.01512 17.5666 6.46006 16.7654 7.25464C16.3711 7.65114 16.059 8.12218 15.8472 8.64049C15.6355 9.1588 15.5282 9.71409 15.5317 10.2743L15.5216 14.5118ZM19.7543 15.5184H14.99C14.8526 15.5131 14.7225 15.4546 14.6271 15.3552C14.5317 15.2557 14.4784 15.1229 14.4785 14.9849V10.2642C14.4814 9.57292 14.6203 8.88901 14.887 8.25166C15.1538 7.61432 15.5433 7.03607 16.0332 6.55006C16.5227 6.05501 17.1058 5.66293 17.7482 5.39677C18.3906 5.1306 19.0794 4.99571 19.7744 4.99998H24.5186C24.5849 4.99861 24.6507 5.01069 24.7122 5.0355C24.7736 5.06031 24.8295 5.09733 24.8763 5.14434C24.9231 5.19135 24.96 5.24737 24.9847 5.30905C25.0095 5.37073 25.0215 5.43679 25.0201 5.50325V10.2642C25.0217 10.9583 24.886 11.6457 24.6209 12.2867C24.3557 12.9278 23.9664 13.5096 23.4755 13.9985C22.4942 14.9867 21.1645 15.5472 19.7744 15.5586L19.7543 15.5184Z" fill="white"/>
</g>
<defs>
<clipPath id="clip0_1293_2445">
<rect width="20" height="20" fill="white" transform="translate(5 5)"/>
</clipPath>
</defs>
</svg>

<svg class="menu-farm" width="30" height="30" fill="none" xmlns="http://www.w3.org/2000/svg">
  <g clip-path="url(#a)" fill="#fff">
    <path d="M15.492 24.487a.494.494 0 0 1-.502.513.511.511 0 0 1-.511-.513v-9.462a.535.535 0 0 1 .511-.513.5.5 0 0 1 .502.513v9.462Z"/>
    <path d="M14.99 20.31h-4.744a5.22 5.22 0 0 1-3.701-1.55A5.255 5.255 0 0 1 5 15.024v-4.76a.505.505 0 0 1 .512-.514h4.734a5.21 5.21 0 0 1 3.731 1.56 5.284 5.284 0 0 1 1.545 3.714v4.791a.534.534 0 0 1-.532.504v-.01Zm-4.744-1.007h4.232v-4.278a4.17 4.17 0 0 0-1.233-3.02 4.242 4.242 0 0 0-3.01-1.258H6.004v4.248c0 1.13.444 2.214 1.234 3.02a4.222 4.222 0 0 0 3.009 1.238v.05Z"/>
    <path d="M15.522 14.512h4.252a4.13 4.13 0 0 0 3.01-1.238 4.258 4.258 0 0 0 1.253-3.02V6.017h-4.263a4.265 4.265 0 0 0-3.009 1.238 4.24 4.24 0 0 0-1.233 3.02l-.01 4.237Zm4.232 1.006H14.99a.531.531 0 0 1-.511-.533v-4.72a5.271 5.271 0 0 1 1.554-3.715A5.224 5.224 0 0 1 19.774 5h4.745a.49.49 0 0 1 .501.503v4.761A5.26 5.26 0 0 1 23.476 14a5.277 5.277 0 0 1-3.702 1.56l-.02-.04Z"/>
  </g>
  <defs>
    <clipPath id="a">
      <path fill="#fff" transform="translate(5 5)" d="M0 0h20v20H0z"/>
    </clipPath>
  </defs>
</svg>
